public/images/MenuLogo.svg

<svg width="164" height="20" viewBox="0 0 164 20" fill="none" xmlns="http://www.w3.org/2000/svg">
<g id="MenuLogo" clip-path="url(#clip0_62_18661)">
<path id="logo-text-s" d="M153.925 15.1128C154.192 14.8919 154.597 14.9287 154.818 15.1864C155.637 16.1528 156.806 16.751 157.975 16.751C159.052 16.751 159.88 16.3369 159.88 15.5821C159.88 14.8735 159.172 14.6249 157.543 14.2568C154.616 13.6033 152.554 12.6645 152.554 9.92177C152.554 7.41832 154.864 5.79844 157.782 5.79844C160.156 5.79844 161.749 6.82007 162.752 8.05339C162.982 8.33871 162.945 8.75288 162.669 8.98298L161.39 10.0414C161.114 10.2715 160.718 10.2255 160.479 9.95859C159.88 9.2867 159.015 8.81731 157.865 8.81731C156.714 8.81731 155.914 9.22228 155.914 9.89416C155.914 10.6213 156.76 10.8514 158.417 11.2563C161.399 11.9834 163.295 12.9406 163.295 15.5914C163.295 18.2421 160.874 19.7423 158.012 19.7423C155.637 19.7423 153.686 18.7575 152.434 17.1744C152.204 16.8891 152.241 16.4749 152.526 16.2448L153.925 15.122V15.1128Z" fill="white"/>
<path id="logo-text-u" d="M137 14.5605V6.72803C137 6.36908 137.294 6.07455 137.653 6.07455H139.917C140.276 6.07455 140.571 6.36908 140.571 6.72803V13.6401C140.571 15.4901 141.767 16.4841 143.332 16.4841C144.896 16.4841 146.323 15.4993 146.323 13.6401V6.72803C146.323 6.36908 146.618 6.07455 146.976 6.07455H149.241C149.6 6.07455 149.894 6.36908 149.894 6.72803V18.7943C149.894 19.1532 149.6 19.4478 149.241 19.4478H147.115C146.765 19.4478 146.479 19.1717 146.461 18.8219L146.424 17.9659C145.725 18.9139 144.289 19.7883 142.273 19.7883C139.181 19.7883 137.009 17.7727 137.009 14.5513L137 14.5605Z" fill="white"/>
<path id="logo-text-x" d="M126.213 12.2411L122.402 7.11459C122.08 6.68201 122.393 6.07455 122.927 6.07455H125.403C125.614 6.07455 125.817 6.1758 125.937 6.35067L128.118 9.44317C128.376 9.81132 128.928 9.81132 129.185 9.44317L131.358 6.35067C131.477 6.1758 131.68 6.07455 131.891 6.07455H134.358C134.892 6.07455 135.205 6.68201 134.883 7.11459L131.091 12.2411C130.925 12.4712 130.916 12.7842 131.091 13.0143L135.021 18.4169C135.334 18.8495 135.021 19.457 134.496 19.457H132.094C131.882 19.457 131.68 19.3557 131.56 19.1717L129.213 15.7846C128.955 15.4073 128.394 15.4073 128.136 15.7846L125.817 19.1625C125.697 19.3373 125.495 19.4478 125.283 19.4478H122.89C122.356 19.4478 122.052 18.8495 122.356 18.4169L126.249 13.0143C126.415 12.7842 126.415 12.4712 126.249 12.2411H126.213Z" fill="white"/>
<g id="logo-text-e-3">
<path id="e-3-green" d="M107.98 12.7566C107.989 8.67004 110.888 5.80764 114.864 5.80764C118.546 5.80764 121.344 8.27428 121.344 12.324C121.344 12.6277 121.325 12.9314 121.298 13.2444C121.261 13.5849 120.985 13.8426 120.644 13.8426H112.49C111.993 13.8426 111.661 14.3948 111.919 14.8182C112.545 15.8491 113.806 16.5117 115.122 16.5117C116.272 16.5117 117.285 16.0515 118.104 15.0943C118.316 14.8458 118.702 14.8182 118.969 15.0207L120.488 16.162C120.782 16.3829 120.828 16.8063 120.607 17.1008C119.291 18.8311 117.174 19.7515 115.039 19.7515C110.75 19.7515 107.989 16.659 107.989 12.7566H107.98Z" fill="white"/>
<path id="e-3-white" d="M117.147 11.4404C117.616 11.4404 117.948 10.9434 117.745 10.52C117.267 9.50759 116.226 8.8081 114.901 8.8081C113.576 8.8081 112.407 9.48918 111.891 10.5016C111.671 10.9342 112.002 11.4404 112.481 11.4404H117.147Z" fill="#93CA88"/>
</g>
<g id="logo-text-n">
<path id="n-green" d="M89.3972 19.3465V1.73033C89.3972 1.37137 89.6917 1.07685 90.0507 1.07685H92.4989C92.6922 1.07685 92.8855 1.16889 93.0051 1.31615L102.108 12.6185C102.494 13.0971 103.267 12.821 103.267 12.2135V1.73033C103.267 1.37137 103.562 1.07685 103.921 1.07685H106.378C106.737 1.07685 107.032 1.37137 107.032 1.73033V19.3465C107.032 19.7055 106.737 20 106.378 20H103.875C103.682 20 103.488 19.908 103.369 19.7607L94.3213 8.58721C93.9347 8.1086 93.1616 8.38472 93.1616 9.00138V19.3557C93.1616 19.7147 92.8671 20.0092 92.5081 20.0092H90.0507C89.6917 20.0092 89.3972 19.7147 89.3972 19.3557V19.3465Z" fill="#93CA88"/>
<path id="n-white" d="M88.3572 18.8035V1.1873C88.3572 0.828345 88.6517 0.533821 89.0107 0.533821H91.4589C91.6522 0.533821 91.8454 0.62586 91.9651 0.773122L101.068 12.0755C101.454 12.5541 102.227 12.278 102.227 11.6705V1.1873C102.227 0.828345 102.522 0.533821 102.881 0.533821H105.338C105.697 0.533821 105.992 0.828345 105.992 1.1873V18.8035C105.992 19.1624 105.697 19.457 105.338 19.457H102.835C102.642 19.457 102.448 19.3649 102.329 19.2177L93.2812 8.04418C92.8947 7.56557 92.1216 7.84169 92.1216 8.45835V18.8127C92.1216 19.1716 91.827 19.4662 91.4681 19.4662H89.0107C88.6517 19.4662 88.3572 19.1716 88.3572 18.8127V18.8035Z" fill="white"/>
</g>
<path id="logo-text-r-2" d="M74.7997 6.08376H76.9718C77.3216 6.08376 77.6069 6.35987 77.6253 6.70962L77.6713 7.90612C78.3524 6.51634 79.6502 5.79844 81.1596 5.79844C81.6198 5.79844 82.0432 5.87207 82.3653 5.9457C82.6874 6.01933 82.8807 6.31386 82.8531 6.63599L82.6874 8.51358C82.6506 8.90935 82.2917 9.17626 81.9051 9.09342C81.629 9.0382 81.3068 8.99218 80.9571 8.99218C79.3832 8.99218 77.7265 9.83894 77.7265 12.6001V18.8035C77.7265 19.1625 77.432 19.457 77.0731 19.457H74.7997C74.4408 19.457 74.1462 19.1625 74.1462 18.8035V6.72803C74.1462 6.36908 74.4408 6.07455 74.7997 6.07455V6.08376Z" fill="white"/>
<g id="logo-text-e-2">
<path id="e-2-white" d="M58.8403 12.7566C58.8495 8.67004 61.7488 5.80764 65.7248 5.80764C69.4064 5.80764 72.2043 8.27428 72.2043 12.324C72.2043 12.6277 72.1859 12.9314 72.1583 13.2444C72.1215 13.5849 71.8454 13.8426 71.5049 13.8426H63.3502C62.8532 13.8426 62.5219 14.3948 62.7796 14.8182C63.4054 15.8491 64.6664 16.5117 65.9825 16.5117C67.133 16.5117 68.1454 16.0515 68.9646 15.0943C69.1763 14.8458 69.5628 14.8182 69.8298 15.0207L71.3484 16.162C71.6429 16.3829 71.6889 16.8063 71.468 17.1008C70.1519 18.8311 68.035 19.7515 65.8997 19.7515C61.6107 19.7515 58.8495 16.659 58.8495 12.7566H58.8403Z" fill="white"/>
<path id="e-2-green" d="M68.0075 11.4404C68.4769 11.4404 68.8082 10.9434 68.6057 10.52C68.1271 9.50759 67.0871 8.8081 65.7617 8.8081C64.4364 8.8081 63.2675 9.48918 62.7521 10.5016C62.5312 10.9342 62.8625 11.4404 63.3411 11.4404H68.0075Z" fill="#93CA88"/>
</g>
<g id="logo-text-e-1">
<path id="e-1-white" d="M44.2153 12.7566C44.2337 8.67004 47.1238 5.80764 51.0998 5.80764C54.7814 5.80764 57.5793 8.27428 57.5793 12.324C57.5793 12.6277 57.5609 12.9314 57.5333 13.2444C57.4965 13.5849 57.2204 13.8426 56.8799 13.8426H48.7252C48.2282 13.8426 47.8969 14.3948 48.1546 14.8182C48.7804 15.8491 50.0414 16.5117 51.3575 16.5117C52.508 16.5117 53.5204 16.0515 54.3396 15.0943C54.5513 14.8458 54.9378 14.8182 55.2047 15.0207L56.7234 16.162C57.0179 16.3829 57.0639 16.8063 56.843 17.1008C55.5269 18.8311 53.41 19.7515 51.2747 19.7515C46.9857 19.7515 44.2245 16.659 44.2245 12.7566H44.2153Z" fill="white"/>
<path id="e-1-green" d="M53.3825 11.4404C53.8519 11.4404 54.1832 10.9434 53.9807 10.52C53.5021 9.50759 52.4621 8.8081 51.1367 8.8081C49.8114 8.8081 48.6425 9.48918 48.1271 10.5016C47.9062 10.9342 48.2375 11.4404 48.7161 11.4404H53.3825Z" fill="#93CA88"/>
</g>
<path id="logo-text-r-1" d="M35.987 6.08376H38.1591C38.5088 6.08376 38.7941 6.35987 38.8126 6.70962L38.8586 7.90612C39.5397 6.51634 40.8374 5.79844 42.3376 5.79844C42.7978 5.79844 43.2212 5.87207 43.5525 5.9457C43.8839 6.01933 44.068 6.31386 44.0404 6.63599L43.8747 8.51358C43.8379 8.90935 43.4789 9.17626 43.0924 9.09342C42.8162 9.0382 42.4941 8.99218 42.1444 8.99218C40.5705 8.99218 38.9138 9.83894 38.9138 12.6001V18.8035C38.9138 19.1625 38.6193 19.457 38.2603 19.457H35.987C35.628 19.457 35.3335 19.1625 35.3335 18.8035V6.72803C35.3335 6.36908 35.628 6.07455 35.987 6.07455V6.08376Z" fill="white"/>
<g id="logo-text-a">
<path id="a-white" d="M20.3589 15.619C20.3589 13.0971 22.6691 11.3392 26.2217 11.3392C27.1421 11.3392 28.173 11.4956 29.0381 11.7994V11.4956C29.0381 10.023 27.8416 8.94616 26.1389 8.94616C24.8412 8.94616 23.8472 9.47999 23.0372 10.1979C22.7795 10.428 22.3929 10.4188 22.1444 10.1703L20.9847 9.01059C20.7362 8.76208 20.727 8.35711 20.9755 8.09941C22.0064 7.01335 23.8195 5.79844 26.2586 5.79844C30.1702 5.79844 32.6092 7.87851 32.6092 11.2195V18.8035C32.6092 19.1625 32.3147 19.457 31.9558 19.457H29.8573C29.4983 19.457 29.2038 19.1625 29.2038 18.8035V17.966C28.4767 19.052 27.0961 19.7331 25.4118 19.7331C22.3745 19.7331 20.3589 18.104 20.3589 15.619Z" fill="white"/>
<path id="a-inner" d="M23.746 15.4257C23.746 16.4289 24.6112 17.0732 25.9734 17.0732C27.4828 17.0732 28.7161 16.1804 28.983 14.809C29.0474 14.4777 28.8542 14.1555 28.532 14.0451C27.9614 13.8518 27.2803 13.723 26.4704 13.723C24.8413 13.723 23.7368 14.404 23.7368 15.4257H23.746Z" fill="#93CA88"/>
</g>
<g id="logo-text-c">
<path id="c-green" d="M1.04004 10.2439C1.04004 4.67556 5.40267 0.52462 11.017 0.52462C14.1648 0.52462 17.3217 2.1445 19.1256 4.73079C19.3281 5.01611 19.2453 5.41187 18.9692 5.61436L16.4749 7.45513C16.1896 7.66682 15.7846 7.6208 15.5729 7.33548C14.4777 5.85366 13.1063 4.81362 11.017 4.81362C7.82329 4.81362 5.73401 7.09618 5.73401 10.2439C5.73401 13.3916 7.82329 15.7018 11.017 15.7018C12.9222 15.7018 14.4041 14.855 15.6374 13.2352C15.8583 12.9498 16.2632 12.867 16.5578 13.0879L19.0336 14.9011C19.3097 15.1035 19.3925 15.4993 19.1993 15.7846C17.3585 18.4445 14.3856 20 11.0262 20C5.41187 20 1.04924 15.8214 1.04924 10.2439H1.04004Z" fill="#93CA88"/>
<path id="c-white" d="M0 9.72849C0 4.15094 4.36263 0 9.97699 0C13.1247 0 16.2816 1.61988 18.0856 4.20617C18.2881 4.49149 18.2052 4.88725 17.9291 5.08974L15.4349 6.93051C15.1496 7.1422 14.7446 7.09618 14.5329 6.81086C13.4376 5.32904 12.0663 4.289 9.97699 4.289C6.78325 4.289 4.69397 6.57156 4.69397 9.71928C4.69397 12.867 6.78325 15.1772 9.97699 15.1772C11.8822 15.1772 13.364 14.3304 14.5973 12.7105C14.8182 12.4252 15.2232 12.3424 15.5177 12.5633L17.9936 14.3764C18.2697 14.5789 18.3525 14.9747 18.1592 15.26C16.3185 17.9199 13.3456 19.4754 9.98619 19.4754C4.36263 19.4754 0 15.2968 0 9.72849Z" fill="white"/>
</g>
</g>
<defs>
<clipPath id="clip0_62_18661">
<rect width="163.295" height="20" fill="white"/>
</clipPath>
</defs>
</svg>

<svg xmlns="http://www.w3.org/2000/svg" width="164" height="20" fill="none"><g clip-path="url(#a)"><path fill="#fff" d="M153.925 15.113a.647.647 0 0 1 .893.073c.819.967 1.988 1.565 3.157 1.565 1.077 0 1.905-.414 1.905-1.169 0-.709-.708-.957-2.337-1.325-2.927-.654-4.989-1.592-4.989-4.335 0-2.504 2.31-4.124 5.228-4.124 2.374 0 3.967 1.022 4.97 2.255.23.286.193.7-.083.93l-1.279 1.058a.653.653 0 0 1-.911-.082c-.599-.672-1.464-1.142-2.614-1.142-1.151 0-1.951.405-1.951 1.077 0 .727.846.957 2.503 1.362 2.982.727 4.878 1.685 4.878 4.335s-2.421 4.151-5.283 4.151c-2.375 0-4.326-.985-5.578-2.568a.66.66 0 0 1 .092-.93l1.399-1.122zM137 14.56V6.728c0-.359.294-.653.653-.653h2.264c.359 0 .654.294.654.653v6.912c0 1.85 1.196 2.844 2.761 2.844 1.564 0 2.991-.985 2.991-2.844V6.728c0-.359.295-.653.653-.653h2.265c.359 0 .653.294.653.653v12.066a.656.656 0 0 1-.653.654h-2.126a.657.657 0 0 1-.654-.626l-.037-.856c-.699.948-2.135 1.822-4.151 1.822-3.092 0-5.264-2.015-5.264-5.237zM126.213 12.241l-3.811-5.126a.652.652 0 0 1 .525-1.04h2.476c.211 0 .414.1.534.276l2.181 3.092a.653.653 0 0 0 1.067 0l2.173-3.092a.65.65 0 0 1 .533-.276h2.467c.534 0 .847.607.525 1.04l-3.792 5.126a.65.65 0 0 0 0 .773l3.93 5.403a.657.657 0 0 1-.525 1.04h-2.402a.63.63 0 0 1-.534-.285l-2.347-3.387a.654.654 0 0 0-1.077 0l-2.319 3.378a.66.66 0 0 1-.534.285h-2.393a.653.653 0 0 1-.534-1.031l3.893-5.403a.66.66 0 0 0 0-.773zM107.98 12.757c.009-4.087 2.908-6.95 6.884-6.95 3.682 0 6.48 2.467 6.48 6.517 0 .304-.019.607-.046.92a.66.66 0 0 1-.654.599h-8.154c-.497 0-.829.552-.571.975.626 1.031 1.887 1.694 3.203 1.694 1.15 0 2.163-.46 2.982-1.418.212-.248.598-.276.865-.073l1.519 1.141c.294.22.34.644.119.939-1.316 1.73-3.433 2.65-5.568 2.65-4.289 0-7.05-3.092-7.05-6.994z"/><path fill="#93CA88" d="M117.147 11.44c.469 0 .801-.497.598-.92-.478-1.012-1.519-1.712-2.844-1.712s-2.494.681-3.01 1.694c-.22.432.111.938.59.938zM89.397 19.347V1.73c0-.359.295-.653.654-.653h2.448c.193 0 .386.092.506.24l9.103 11.301c.386.48 1.159.203 1.159-.405V1.73c0-.359.295-.653.654-.653h2.457c.359 0 .654.294.654.653v17.617a.656.656 0 0 1-.654.653h-2.503a.67.67 0 0 1-.506-.24L94.321 8.588c-.386-.478-1.16-.202-1.16.414v10.355a.656.656 0 0 1-.653.653h-2.457a.656.656 0 0 1-.654-.653z"/><path fill="#fff" d="M88.357 18.804V1.186c0-.359.295-.653.654-.653h2.448c.193 0 .386.092.506.24l9.103 11.301c.386.48 1.159.203 1.159-.404V1.187c0-.359.295-.653.654-.653h2.457c.359 0 .654.294.654.653v17.617a.656.656 0 0 1-.654.653h-2.503a.67.67 0 0 1-.506-.24L93.281 8.045c-.386-.478-1.16-.202-1.16.414v10.355a.656.656 0 0 1-.653.653h-2.457a.656.656 0 0 1-.654-.653zM74.8 6.084h2.172c.35 0 .635.276.653.626l.046 1.196c.681-1.39 1.98-2.108 3.489-2.108.46 0 .883.074 1.205.148a.636.636 0 0 1 .488.69l-.166 1.878a.644.644 0 0 1-.782.58 5 5 0 0 0-.948-.102c-1.574 0-3.23.847-3.23 3.608v6.204a.656.656 0 0 1-.654.653H74.8a.656.656 0 0 1-.654-.654V6.729c0-.359.295-.653.654-.653zM58.84 12.757c.01-4.087 2.909-6.95 6.885-6.95 3.681 0 6.48 2.467 6.48 6.517 0 .304-.02.607-.047.92a.66.66 0 0 1-.653.599H63.35c-.497 0-.828.552-.57.975.625 1.031 1.886 1.694 3.203 1.694 1.15 0 2.162-.46 2.982-1.418.211-.248.598-.276.865-.073l1.518 1.141c.295.22.34.644.12.939-1.316 1.73-3.433 2.65-5.568 2.65-4.29 0-7.05-3.092-7.05-6.994z"/><path fill="#93CA88" d="M68.008 11.44c.469 0 .8-.497.598-.92-.479-1.012-1.519-1.712-2.844-1.712-1.326 0-2.495.681-3.01 1.694-.22.432.11.938.59.938z"/><path fill="#fff" d="M44.215 12.757c.019-4.087 2.909-6.95 6.885-6.95 3.681 0 6.48 2.467 6.48 6.517 0 .304-.02.607-.047.92a.66.66 0 0 1-.653.599h-8.155c-.497 0-.828.552-.57.975.625 1.031 1.886 1.694 3.203 1.694 1.15 0 2.162-.46 2.982-1.418.211-.248.598-.276.865-.073l1.518 1.141c.295.22.34.644.12.939-1.316 1.73-3.433 2.65-5.568 2.65-4.29 0-7.05-3.092-7.05-6.994z"/><path fill="#93CA88" d="M53.383 11.44c.469 0 .8-.497.598-.92-.479-1.012-1.519-1.712-2.844-1.712-1.326 0-2.495.681-3.01 1.694-.22.432.11.938.59.938z"/><path fill="#fff" d="M35.987 6.084h2.172c.35 0 .635.276.654.626l.046 1.196c.68-1.39 1.978-2.108 3.479-2.108.46 0 .883.074 1.215.148.33.073.515.368.487.69l-.165 1.878a.644.644 0 0 1-.783.58 5 5 0 0 0-.948-.102c-1.573 0-3.23.847-3.23 3.608v6.204a.656.656 0 0 1-.654.653h-2.273a.656.656 0 0 1-.654-.654V6.729c0-.359.295-.653.654-.653zM20.359 15.619c0-2.522 2.31-4.28 5.863-4.28.92 0 1.951.157 2.816.46v-.303c0-1.473-1.196-2.55-2.9-2.55-1.297 0-2.29.534-3.1 1.252a.645.645 0 0 1-.894-.028l-1.16-1.16a.65.65 0 0 1-.009-.91c1.031-1.087 2.845-2.302 5.284-2.302 3.911 0 6.35 2.08 6.35 5.422v7.583a.656.656 0 0 1-.653.654h-2.099a.656.656 0 0 1-.653-.654v-.837c-.727 1.086-2.108 1.767-3.792 1.767-3.037 0-5.053-1.629-5.053-4.114"/><path fill="#93CA88" d="M23.746 15.426c0 1.003.865 1.647 2.227 1.647 1.51 0 2.743-.893 3.01-2.264a.67.67 0 0 0-.451-.764 6.4 6.4 0 0 0-2.062-.322c-1.629 0-2.733.681-2.733 1.703zM1.04 10.244c0-5.568 4.363-9.72 9.977-9.72 3.148 0 6.305 1.62 8.109 4.207a.644.644 0 0 1-.157.883l-2.494 1.841a.644.644 0 0 1-.902-.12c-1.095-1.481-2.467-2.521-4.556-2.521-3.194 0-5.283 2.282-5.283 5.43s2.09 5.458 5.283 5.458c1.905 0 3.387-.847 4.62-2.467.221-.285.626-.368.92-.147l2.477 1.813a.655.655 0 0 1 .165.884C17.36 18.445 14.386 20 11.026 20c-5.614 0-9.977-4.179-9.977-9.756z"/><path fill="#fff" d="M0 9.728C0 4.151 4.363 0 9.977 0c3.148 0 6.305 1.62 8.109 4.206a.644.644 0 0 1-.157.884l-2.494 1.84a.644.644 0 0 1-.902-.12C13.438 5.33 12.066 4.29 9.977 4.29c-3.194 0-5.283 2.283-5.283 5.43 0 3.148 2.09 5.458 5.283 5.458 1.905 0 3.387-.847 4.62-2.466.221-.286.626-.369.92-.148l2.477 1.813a.655.655 0 0 1 .165.884c-1.84 2.66-4.813 4.215-8.173 4.215C4.363 19.475 0 15.297 0 9.728"/></g><defs><clipPath id="a"><path fill="#fff" d="M0 0h163.295v20H0z"/></clipPath></defs></svg>
